remix/Document/file-transfer-fill.svg

<svg viewBox="0 0 24 24" fill="currentColor" xmlns="http://www.w3.org/2000/svg"><path d="M16 2L21 7V21.0082C21 21.556 20.5551 22 20.0066 22H3.9934C3.44476 22 3 21.5447 3 21.0082V2.9918C3 2.44405 3.44495 2 3.9934 2H16ZM12 11H8V13H12V16L16 12L12 8V11Z"/></svg>

<svg viewBox="0 0 24 24" xmlns="http://www.w3.org/2000/svg"><path fill="none" d="M0 0h24v24H0Z"/><path d="M16 2l5 5v14.008h0c-.01.54-.45.99-1 .99H3.98v0c-.55-.01-.99-.45-1-1V2.98c-.001-.55.44-1 .99-1h12Zm-4 9H8v2h4v3l4-4 -4-4v3Z"/></svg>
